images/portal/4303.svg

<?xml version="1.0" standalone="no"?><!DOCTYPE svg PUBLIC "-//W3C//DTD SVG 1.1//EN" "http://www.w3.org/Graphics/SVG/1.1/DTD/svg11.dtd"><svg xmlns:xlink="http://www.w3.org/1999/xlink" version="1.1" class="highcharts-root" style="font-family:arial;font-size:9pt;" xmlns="http://www.w3.org/2000/svg" width="485" height="415"><desc>Created with Highstock 5.0.14</desc><defs><clipPath id="highcharts-ir3nm35-7"><rect x="0" y="0" width="422" height="216" fill="none"></rect></clipPath><clipPath id="highcharts-ir3nm35-8"><rect x="0" y="0" width="422" height="216" fill="none"></rect></clipPath></defs><rect fill="#fbfbfb" class="highcharts-background" x="0" y="0" width="485" height="415" rx="0" ry="0"></rect><rect fill="none" class="highcharts-plot-background" x="53" y="128" width="422" height="216"></rect><g class="highcharts-label" style="cursor:pointer;" transform="translate(10,451)"><text x="0" y="0"><tspan>&gt; Indikator-Details</tspan></text></g><g class="highcharts-pane-group"></g><g class="highcharts-grid highcharts-xaxis-grid "><path fill="none" class="highcharts-grid-line" d="M 263.5 128 L 263.5 344" opacity="1"></path><path fill="none" class="highcharts-grid-line" d="M 474.5 128 L 474.5 344" opacity="1"></path><path fill="none" class="highcharts-grid-line" d="M 52.5 128 L 52.5 344" opacity="1"></path></g><g class="highcharts-grid highcharts-yaxis-grid "><path fill="none" stroke="#e6e6e6" stroke-width="1" class="highcharts-grid-line" d="M 53 344.5 L 475 344.5" opacity="1"></path><path fill="none" stroke="#e6e6e6" stroke-width="1" class="highcharts-grid-line" d="M 53 290.5 L 475 290.5" opacity="1"></path><path fill="none" stroke="#e6e6e6" stroke-width="1" class="highcharts-grid-line" d="M 53 236.5 L 475 236.5" opacity="1"></path><path fill="none" stroke="#e6e6e6" stroke-width="1" class="highcharts-grid-line" d="M 53 182.5 L 475 182.5" opacity="1"></path><path fill="none" stroke="#e6e6e6" stroke-width="1" class="highcharts-grid-line" d="M 53 127.5 L 475 127.5" opacity="1"></path></g><g class="highcharts-grid highcharts-yaxis-grid "></g><rect fill="none" class="highcharts-plot-border" x="53" y="128" width="422" height="216"></rect><g class="highcharts-axis highcharts-xaxis "><path fill="none" class="highcharts-axis-line" stroke="#ccd6eb" stroke-width="1" d="M 53 344.5 L 475 344.5"></path></g><g class="highcharts-axis highcharts-yaxis "><path fill="none" class="highcharts-axis-line" d="M 53 128 L 53 344"></path></g><g class="highcharts-axis highcharts-yaxis "><path fill="none" class="highcharts-axis-line" d="M 475 128 L 475 344"></path></g><g class="highcharts-series-group"><g class="highcharts-series highcharts-series-0 highcharts-column-series highcharts-color-undefined " transform="translate(53,128) scale(1 1)" clip-path="url(#highcharts-ir3nm35-8)"><rect x="55" y="0" width="102" height="7" fill="#FF8028" class="highcharts-point"></rect><rect x="266" y="0" width="102" height="10" fill="#FF8028" class="highcharts-point"></rect></g><g class="highcharts-markers highcharts-series-0 highcharts-column-series highcharts-color-undefined " transform="translate(53,128) scale(1 1)" clip-path="none"></g><g class="highcharts-series highcharts-series-1 highcharts-column-series highcharts-color-undefined " transform="translate(53,128) scale(1 1)" clip-path="url(#highcharts-ir3nm35-8)"><rect x="55" y="7" width="102" height="28" fill="#DC440E" class="highcharts-point"></rect><rect x="266" y="10" width="102" height="44" fill="#DC440E" class="highcharts-point"></rect></g><g class="highcharts-markers highcharts-series-1 highcharts-column-series highcharts-color-undefined " transform="translate(53,128) scale(1 1)" clip-path="none"></g><g class="highcharts-series highcharts-series-2 highcharts-column-series highcharts-color-undefined " transform="translate(53,128) scale(1 1)" clip-path="url(#highcharts-ir3nm35-8)"><rect x="55" y="35" width="102" height="81" fill="#B00000" class="highcharts-point"></rect><rect x="266" y="54" width="102" height="60" fill="#B00000" class="highcharts-point"></rect></g><g class="highcharts-markers highcharts-series-2 highcharts-column-series highcharts-color-undefined " transform="translate(53,128) scale(1 1)" clip-path="none"></g><g class="highcharts-series highcharts-series-3 highcharts-column-series highcharts-color-undefined " transform="translate(53,128) scale(1 1)" clip-path="url(#highcharts-ir3nm35-8)"><rect x="55" y="116" width="102" height="42" fill="#661200" class="highcharts-point"></rect><rect x="266" y="114" width="102" height="60" fill="#661200" class="highcharts-point"></rect></g><g class="highcharts-markers highcharts-series-3 highcharts-column-series highcharts-color-undefined " transform="translate(53,128) scale(1 1)" clip-path="none"></g><g class="highcharts-series highcharts-series-4 highcharts-column-series highcharts-color-undefined " transform="translate(53,128) scale(1 1)" clip-path="url(#highcharts-ir3nm35-8)"><rect x="55" y="158" width="102" height="59" fill="#D3E2E4" class="highcharts-point"></rect><rect x="266" y="174" width="102" height="43" fill="#D3E2E4" class="highcharts-point"></rect></g><g class="highcharts-markers highcharts-series-4 highcharts-column-series highcharts-color-undefined " transform="translate(53,128) scale(1 1)" clip-path="none"></g></g><text x="10" text-anchor="start" class="highcharts-title" style="color:#000000;font-size:1.1em;font-weight:bold;fill:#000000;" y="20"><tspan>Strukturen der Fliessgewässer</tspan></text><text x="10" text-anchor="start" class="highcharts-subtitle" style="color:#000000;font-size:0.9em;fill:#000000;" y="38"><tspan>Kilometer und Prozent</tspan></text><g class="highcharts-legend" transform="translate(10,40)"><rect fill="none" class="highcharts-legend-box" rx="0" ry="0" x="0" y="0" width="343" height="76" visibility="visible"></rect><g><g><g class="highcharts-legend-item highcharts-column-series highcharts-color-undefined highcharts-series-0" transform="translate(12,7)"><text x="21" style="color:#333333;font-size:1em;font-weight:normal;cursor:pointer;fill:#333333;" text-anchor="start" y="15"><tspan>BS: natürlich, naturnah</tspan></text><rect x="2" y="4" width="12" height="12" fill="#FF8028" class="highcharts-point"></rect></g><g class="highcharts-legend-item highcharts-column-series highcharts-color-undefined highcharts-series-1" transform="translate(174.96875,7)"><text x="21" y="15" style="color:#333333;font-size:1em;font-weight:normal;cursor:pointer;fill:#333333;" text-anchor="start"><tspan>BS: wenig beeinträchtigt</tspan></text><rect x="2" y="4" width="12" height="12" fill="#DC440E" class="highcharts-point"></rect></g><g class="highcharts-legend-item highcharts-column-series highcharts-color-undefined highcharts-series-2" transform="translate(12,26)"><text x="21" y="15" style="color:#333333;font-size:1em;font-weight:normal;cursor:pointer;fill:#333333;" text-anchor="start"><tspan>BS: stark beeinträchtigt</tspan></text><rect x="2" y="4" width="12" height="12" fill="#B00000" class="highcharts-point"></rect></g><g class="highcharts-legend-item highcharts-column-series highcharts-color-undefined highcharts-series-3" transform="translate(176.953125,26)"><text x="21" y="15" style="color:#333333;font-size:1em;font-weight:normal;cursor:pointer;fill:#333333;" text-anchor="start"><tspan>BS: künstlich, naturfremd</tspan></text><rect x="2" y="4" width="12" height="12" fill="#661200" class="highcharts-point"></rect></g><g class="highcharts-legend-item highcharts-column-series highcharts-color-undefined highcharts-series-4" transform="translate(12,45)"><text x="21" y="15" style="color:#333333;font-size:1em;font-weight:normal;cursor:pointer;fill:#333333;" text-anchor="start"><tspan>BS: eingedolt</tspan></text><rect x="2" y="4" width="12" height="12" fill="#D3E2E4" class="highcharts-point"></rect></g></g></g></g><g class="highcharts-axis-labels highcharts-xaxis-labels "><text x="158.5" style="color:#000000;cursor:default;font-size:0.9em;fill:#000000;" text-anchor="middle" transform="translate(0,0)" y="363" opacity="1"><tspan>2006</tspan></text><text x="369.5" style="color:#000000;cursor:default;font-size:0.9em;fill:#000000;" text-anchor="middle" transform="translate(0,0)" y="363" opacity="1"><tspan>2014</tspan></text></g><g class="highcharts-axis-labels highcharts-yaxis-labels "><text x="38" style="color:#000000;cursor:default;font-size:0.9em;fill:#000000;" text-anchor="end" transform="translate(0,0)" y="349" opacity="1"><tspan>0%</tspan></text><text x="38" style="color:#000000;cursor:default;font-size:0.9em;fill:#000000;" text-anchor="end" transform="translate(0,0)" y="295" opacity="1"><tspan>25%</tspan></text><text x="38" style="color:#000000;cursor:default;font-size:0.9em;fill:#000000;" text-anchor="end" transform="translate(0,0)" y="241" opacity="1"><tspan>50%</tspan></text><text x="38" style="color:#000000;cursor:default;font-size:0.9em;fill:#000000;" text-anchor="end" transform="translate(0,0)" y="187" opacity="1"><tspan>75%</tspan></text><text x="38" style="color:#000000;cursor:default;font-size:0.9em;fill:#000000;" text-anchor="end" transform="translate(0,0)" y="133" opacity="1"><tspan>100%</tspan></text></g><g class="highcharts-axis-labels highcharts-yaxis-labels "></g><text x="10" class="highcharts-credits" text-anchor="start" style="cursor:default;color:#000000;font-size:0.8em;fill:#000000;" y="400"><tspan>Quelle: Amt für Umwelt und Energie Basel-Stadt; Amt für Umweltschutz und Energie Basel-Landschaft</tspan></text></svg>

<svg class="highcharts-root" xmlns="http://www.w3.org/2000/svg" viewBox="0 0 485 415" font-family="arial" font-size="12">
    <defs>
        <clipPath id="a">
            <path fill="none" d="M0 0h422v216H0z"/>
        </clipPath>
    </defs>
    <rect fill="#fbfbfb" class="highcharts-background" width="485" height="415" rx="0" ry="0"/>
    <path fill="none" class="highcharts-plot-background" d="M53 128h422v216H53z"/>
    <text transform="translate(10 451)" class="highcharts-label" cursor="pointer">
        <tspan>&gt; Indikator-Details</tspan>
    </text>
    <g class="highcharts-grid highcharts-xaxis-grid">
        <path fill="none" class="highcharts-grid-line" d="M263.5 128v216m211-216v216m-422-216v216"/>
    </g>
    <g class="highcharts-grid highcharts-yaxis-grid">
        <path fill="none" stroke="#e6e6e6" class="highcharts-grid-line" d="M53 344.5h422m-422-54h422m-422-54h422m-422-54h422m-422-55h422"/>
    </g>
    <path fill="none" class="highcharts-plot-border" d="M53 128h422v216H53z"/>
    <g class="highcharts-axis highcharts-xaxis">
        <path fill="none" class="highcharts-axis-line" stroke="#ccd6eb" d="M53 344.5h422"/>
    </g>
    <g class="highcharts-axis highcharts-yaxis">
        <path fill="none" class="highcharts-axis-line" d="M53 128v216"/>
    </g>
    <g class="highcharts-axis highcharts-yaxis">
        <path fill="none" class="highcharts-axis-line" d="M475 128v216"/>
    </g>
    <g class="highcharts-series-group">
        <g class="highcharts-series highcharts-series-0 highcharts-column-series highcharts-color-undefined" transform="translate(53 128)" clip-path="url(#a)">
            <path fill="#FF8028" class="highcharts-point" d="M55 0h102v7H55zm211 0h102v10H266z"/>
        </g>
        <g class="highcharts-series highcharts-series-1 highcharts-column-series highcharts-color-undefined" transform="translate(53 128)" clip-path="url(#a)">
            <path fill="#DC440E" class="highcharts-point" d="M55 7h102v28H55zm211 3h102v44H266z"/>
        </g>
        <g class="highcharts-series highcharts-series-2 highcharts-column-series highcharts-color-undefined" transform="translate(53 128)" clip-path="url(#a)">
            <path fill="#B00000" class="highcharts-point" d="M55 35h102v81H55zm211 19h102v60H266z"/>
        </g>
        <g class="highcharts-series highcharts-series-3 highcharts-column-series highcharts-color-undefined" transform="translate(53 128)" clip-path="url(#a)">
            <path fill="#661200" class="highcharts-point" d="M55 116h102v42H55zm211-2h102v60H266z"/>
        </g>
        <g class="highcharts-series highcharts-series-4 highcharts-column-series highcharts-color-undefined" transform="translate(53 128)" clip-path="url(#a)">
            <path fill="#D3E2E4" class="highcharts-point" d="M55 158h102v59H55zm211 16h102v43H266z"/>
        </g>
    </g>
    <text x="10" class="highcharts-title" y="20" color="#000" font-size="1.1em" font-weight="700">
        <tspan>Strukturen der Fliessgewässer</tspan>
    </text>
    <text x="10" class="highcharts-subtitle" y="38" color="#000" font-size=".9em">
        <tspan>Kilometer und Prozent</tspan>
    </text>
    <g class="highcharts-legend" transform="translate(10 40)">
        <rect fill="none" class="highcharts-legend-box" rx="0" ry="0" width="343" height="76"/>
        <g class="highcharts-legend-item highcharts-column-series highcharts-color-undefined highcharts-series-0">
            <text x="21" y="15" color="#333" font-size="1em" font-weight="400" cursor="pointer" fill="#333" transform="translate(12 7)">
                <tspan>BS: natürlich, naturnah</tspan>
            </text>
            <path fill="#FF8028" class="highcharts-point" d="M14 11h12v12H14z"/>
        </g>
        <g class="highcharts-legend-item highcharts-column-series highcharts-color-undefined highcharts-series-1">
            <text x="21" y="15" color="#333" font-size="1em" font-weight="400" cursor="pointer" fill="#333" transform="translate(174.969 7)">
                <tspan>BS: wenig beeinträchtigt</tspan>
            </text>
            <path fill="#DC440E" class="highcharts-point" d="M176.969 11h12v12h-12z"/>
        </g>
        <g class="highcharts-legend-item highcharts-column-series highcharts-color-undefined highcharts-series-2">
            <text x="21" y="15" color="#333" font-size="1em" font-weight="400" cursor="pointer" fill="#333" transform="translate(12 26)">
                <tspan>BS: stark beeinträchtigt</tspan>
            </text>
            <path fill="#B00000" class="highcharts-point" d="M14 30h12v12H14z"/>
        </g>
        <g class="highcharts-legend-item highcharts-column-series highcharts-color-undefined highcharts-series-3">
            <text x="21" y="15" color="#333" font-size="1em" font-weight="400" cursor="pointer" fill="#333" transform="translate(176.953 26)">
                <tspan>BS: künstlich, naturfremd</tspan>
            </text>
            <path fill="#661200" class="highcharts-point" d="M178.953 30h12v12h-12z"/>
        </g>
        <g class="highcharts-legend-item highcharts-column-series highcharts-color-undefined highcharts-series-4">
            <text x="21" y="15" color="#333" font-size="1em" font-weight="400" cursor="pointer" fill="#333" transform="translate(12 45)">
                <tspan>BS: eingedolt</tspan>
            </text>
            <path fill="#D3E2E4" class="highcharts-point" d="M14 49h12v12H14z"/>
        </g>
    </g>
    <g class="highcharts-axis-labels highcharts-xaxis-labels" text-anchor="middle" color="#000" cursor="default" font-size=".9em">
        <text x="158.5" y="363">
            <tspan>2006</tspan>
        </text>
        <text x="369.5" y="363">
            <tspan>2014</tspan>
        </text>
    </g>
    <g class="highcharts-axis-labels highcharts-yaxis-labels" text-anchor="end" color="#000" cursor="default" font-size=".9em">
        <text x="38" y="349">
            <tspan>0%</tspan>
        </text>
        <text x="38" y="295">
            <tspan>25%</tspan>
        </text>
        <text x="38" y="241">
            <tspan>50%</tspan>
        </text>
        <text x="38" y="187">
            <tspan>75%</tspan>
        </text>
        <text x="38" y="133">
            <tspan>100%</tspan>
        </text>
    </g>
    <text x="10" class="highcharts-credits" y="400" cursor="default" color="#000" font-size=".8em">
        <tspan>Quelle: Amt für Umwelt und Energie Basel-Stadt; Amt für Umweltschutz und Energie Basel-Landschaft</tspan>
    </text>
</svg>
